X:1
T:Albion
T:B. Livins
T:Albion
C:B. Livins
%%score { ( 1 2 ) | ( 3 4 ) }
L:1/8
Q:1/2=120
M:3/2
K:Ab
V:1 treble nm="Piano" snm="Pno."
V:2 treble 
V:3 bass 
V:4 bass 
V:1
 E4 | A8 e4 | (c4 B4) A4 | (B4 A4) G4 | A8 c4 | B8 =d4 | (e4 B4) B4 | (A4 G4) F4 | E8 e4 | %9
 (e4 d4) c4 | (c4 B4) A4 | (E4 d4) c4 | (c4 B4) E4 | (F4 d2 c2) (B2 A2) | (A4 G4) A4 | %15
 (A2 B2 c4) B4 | A8 |] %17
V:2
 E4 | E8 E4 | (A4 G4) E4 | (F4 E4) E4 | E8 E4 | E8 F4 | G8 (G2 E2) | E8 =D4 | E8 A4 | (A4 G4) A4 | %10
 (E4 D4) C4 | (B,4 E4) E4 | E8 E4 | (D4 F2 E2) (D2 F2) | (E4 D4) C4 | (F4 E4) D4 | C8 |] %17
V:3
 G,4 | A,8 B,4 | (E4 D4) C4 | (B,4 C4) D4 | C8 A,4 | B,8 A,4 | (G,4 B,4) D4 | (C4 B,4) A,4 | %8
 G,8 C4 | (C4 B,4) A,4 | (A,4 G,4) A,4 | (G,4 B,4) C4 | (B,4 G,4) A,4 | A,8 (B,2 =B,2) | %14
 (C4 B,4) A,4 | A,8 G,4 | A,8 |] %17
V:4
 (E,2 D,2) | C,8 G,,4 | (A,,4 B,,4) C,4 | (D,4 E,4) E,4 | A,,8 A,4 | G,8 F,4 | E,8 G,,4 | %7
 (A,,4 B,,4) B,,4 | E,8 E,4 | E,8 E,4 | E,8 E,4 | E,8 A,4 | E,8 C,4 | (D,4 B,,2 C,2) (D,2 =D,2) | %14
 E,8 F,4 | (D,4 E,4) E,4 | A,,8 |] %17

